X: 1801
T: Sultânîsegâh Peşrev
C: Santûrî Ethem Efendi
O: Turkey
F: http://compmusic.upf.edu/node/140
N: sultanisegah--pesrev--cifteduyek----santuri_ethem_efendi
N: makam= sultanisegah
N: form= pesrev
N: usul= cifteduyek = 16/4
M: 16/4
L: 1/16
K: C _1/4B _1/4e  
Q: 1/4=72
%%MIDI tuningsystem comma53
z2 c2 B2 ^A2 B4 c4  | d c d e d2 c2 B3 A G4  | \
w:   |   | 
A2 B2 A2 G2 ^A4 B4  | 
w:   | 
c2 d2 c2 B2 c B c e d4  | c4 d8 d2 c B  | \
w:   |   | 
c6 B2 g ^f g a g2 f2  | 
w:   | 
^f3 e e3 d d e d c d c B ^A  | B6 c2 d8  | \
w:   |   | 
z4 B2 d2 ^c4 d4  | e3 g f3 e e d d ^c d4  | 
w:   |   | 
z2 ^f2 e2 d2 d3 c c3 B  | B ^c d4 c2 d c B ^A B4  | \
w:   |   | 
z2 d _7/8e d2 ^c2 _7/8B2 A2 G2 ^F2  | 
w:   | 
z2 _7/8E4 D2 ^C2 D2 A G A2  | z2 D ^F _7/8E2 D2 D2 ^C D E F E D  | \
w:   |   | 
^C2 D4 ^e2 ^f4 z4  | 
w:  2. HANE  | 
^f2 g2 f2 ^1/4e2 d4 ^c4  | d3 ^c c B B ^A B4 d4  | \
w:   |   | 
z2 ^f4 ^e d e4 f4  | g2 a2 g2 ^f2 g a b g a4  | 
w:   |   | 
z4 a3 g g3 ^f f3 e  | a2 _b c' b2 a2 a g g ^f g4  | \
w:   |   | 
z2 _b2 a2 g2 ^f2 e d d c B ^A  | 
w:   | 
B6 c2 d8  | z4 B2 d2 ^c4 d4  | e3 g f3 e e d d ^c d4  | \
w:   |   |   | 
z2 ^f2 e2 d2 d3 c c3 B  | 
w:   | 
B ^c d4 c2 d c B ^A B4  | z2 d _7/8e d2 ^c2 _7/8B2 A2 G2 ^F2  | \
w:   |   | 
z2 _7/8E4 D2 ^C2 D2 A G A2  | 
w:   | 
z2 D ^F _7/8E2 D2 D2 ^C D E F E D  | \
w:   | 
^C2 D4 g2 a4 z4  | z4 ^c'2 _7/8b2 b4 a4  | 
w:  3. HANE  |   | 
z2 g4 a _b a g ^f g a4  | a3 g g3 ^f f3 e e3 d  | \
w:   |   | 
d2 e4 d2 e d c d e4  | 
w:   | 
z2 ^f4 e2 d4 a4  | ^f2 g4 f2 f g f e d4  | \
w:   |   | 
d2 g2 ^f2 e2 d3 c c d c B  | 
w:   | 
B6 c2 d8  | z4 B2 d2 ^c4 d4  | e3 g f3 e e d d ^c d4  | \
w:   |   |   | 
z2 ^f2 e2 d2 d3 c c3 B  | 
w:   | 
B ^c d4 c2 d c B ^A B4  | z2 d _7/8e d2 ^c2 _7/8B2 A2 G2 ^F2  | \
w:   |   | 
z2 _7/8E4 D2 ^C2 D2 A G A2  | 
w:   | 
z2 D ^F _7/8E2 D2 D2 ^C D E F E D  | \
w:   | 
^C2 D4 ^A2 B4 z4  | z2 d4 d c c3 B B3 A  | 
w:  4. HANE  |   | 
G2 A4 A G ^F3 =E D4  | D2 G4 ^A2 B2 c2 d2 c B  | \
w:   |   | 
d6 c2 d e d c d4  | 
w:   | 
f2 g2 f2 a2 f3 e d4  | e ^f g4 f e e d ^c d e4  | \
w:   |   | 
z2 d e d2 ^c2 d3 =c B3 ^A  | 
w:   | 
B6 c2 d8  | z4 B2 d2 ^c4 d4  | e3 g f3 e e d d ^c d4  | \
w:   |   |   | 
z2 ^f2 e2 d2 d3 c c3 B  | 
w:   | 
B ^c d4 c2 d c B ^A B4  | z2 d _7/8e d2 ^c2 _7/8B2 A2 G2 ^F2  | \
w:   |   | 
z2 _7/8E4 D2 ^C2 D2 A G A2  | 
w:   | 
z2 D ^F _7/8E2 D2 D2 ^C D E F E D  | \
w:   | 
^C4 A,2 D8 z2  | |


